material/.icons/material/spider-thread.svg

<svg xmlns="http://www.w3.org/2000/svg" viewBox="0 0 24 24"><path d="M13 2v5.08A5.47 5.47 0 0012 7a5.47 5.47 0 00-1 .08V2m5.9 13a5 5 0 01-.17.55L20 17.42V22h-2v-3.42l-2.26-1.29a4.94 4.94 0 01-7.48 0L6 18.58V22H4v-4.58l3.27-1.87A5 5 0 017.1 15H5.3l-2.75 1.83-1.1-1.66L4.7 13h2.4a5 5 0 01.27-.88l-1.56-1-3.57.88-.48-2 4.43-1.08 2.31 1.53a5 5 0 017 0l2.27-1.53L22.24 10l-.48 2-3.57-.89-1.56 1a5 5 0 01.27.89h2.4l3.25 2.16-1.1 1.66L18.7 15M11 14a1 1 0 10-1 1 1 1 0 001-1m4 0a1 1 0 10-1 1 1 1 0 001-1z"/></svg>

<?xml version="1.0" encoding="UTF-8"?><!DOCTYPE svg PUBLIC "-//W3C//DTD SVG 1.1//EN" "http://www.w3.org/Graphics/SVG/1.1/DTD/svg11.dtd"><svg xmlns="http://www.w3.org/2000/svg" xmlns:xlink="http://www.w3.org/1999/xlink" version="1.1" id="mdi-spider-thread" width="24" height="24" viewBox="0 0 24 24"><path d="M13 2V7.08A5.47 5.47 0 0 0 12 7A5.47 5.47 0 0 0 11 7.08V2M16.9 15A5 5 0 0 1 16.73 15.55L20 17.42V22H18V18.58L15.74 17.29A4.94 4.94 0 0 1 8.26 17.29L6 18.58V22H4V17.42L7.27 15.55A5 5 0 0 1 7.1 15H5.3L2.55 16.83L1.45 15.17L4.7 13H7.1A5 5 0 0 1 7.37 12.12L5.81 11.12L2.24 12L1.76 10L6.19 8.92L8.5 10.45A5 5 0 0 1 15.5 10.45L17.77 8.92L22.24 10L21.76 12L18.19 11.11L16.63 12.11A5 5 0 0 1 16.9 13H19.3L22.55 15.16L21.45 16.82L18.7 15M11 14A1 1 0 1 0 10 15A1 1 0 0 0 11 14M15 14A1 1 0 1 0 14 15A1 1 0 0 0 15 14Z" /></svg>
